!!!!SEGMENT: sonata10-3.krn
!!!COM: Beethoven, Ludwig van
!!!CDT: 1770///-1827///
!!!OTL: Piano Sonata no. 10 in G major
!!!OPS: 14
!!!ONM: 2
!!!OMV: 3
!!!OMD: SCHERZO\nAllegro assai
**kern	**kern	**dynam
*staff2	*staff1	*staff1/2
*Ipiano	*Ipiano	*Ipiano
*clefF4	*clefG2	*
*k[f#]	*k[f#]	*
*G:	*G:	*
*M3/8	*M3/8	*
*MM120	*MM120	*
8r	(16BLL	p
.	16cJJ	.
=1	=1	=1
4.r	8d')	.
.	(16eLL	.
.	16f#J	.
.	8g'J)	.
=2	=2	=2
4.r	(16aLL	.
.	16bJ	.
.	8cc'J)	.
.	8cc#'	.
=3	=3	=3
*^	*	*
4B	[4.G	(4dd	.
16cLL	.	16eeLL	.
16A#JJ	.	16cc#JJ	.
=4	=4	=4	=4
8B'	8G]	8dd')	.
8r	8r	8r	.
8r	8r	(16bLL	.
.	.	16ccnJJ	.
*v	*v	*	*
=5	=5	=5
4.r	8dd')	.
.	(16eeLL	.
.	16ff#J	.
.	8gg'J)	.
=6	=6	=6
4.r	(16aaLL	.
.	16bbJ	.
.	8ccc'J)	.
.	8ccc#'	.
*clefG2	*	*
=7	=7	=7
*^	*	*
.	.	(<ddq8	.
(4b	4.d	(4ddd)	rfz
16aLL	.	16cccnLL	.
16f#JJ	.	16aaJJ	.
!!LO:LB:g=original
=8	=8	=8	=8
8g)	8g	8gg)	.
8r	8r	8r	.
8r	8r	(24dLL	p
.	.	24e	.
.	.	24f#JJ)	.
*v	*v	*	*
*clefF4	*	*
=9	=9	=9
8r	(24gLL	.
.	24a	.
.	24bJJ)	.
8r	8cc'	.
8D' 8A' 8c'	8r	.
*clefG2	*	*
=10	=10	=10
8d' 8a' 8cc'	8r	.
8r	8ccc'	.
8r	(24dLL	.
.	24e	.
.	24f#JJ)	.
*clefF4	*	*
=11	=11	=11
8r	(24gLL	.
.	24a	.
.	24bJJ)	.
8r	8cc'	.
8D' 8A' 8c'	8r	.
*clefG2	*	*
=12	=12	=12
8d' 8a' 8cc'	8r	.
8r	8ccc	.
8r	(24dLL	.
.	24e	.
.	24f#JJ)	.
=13	=13	=13
4.r	(24gLL	<
.	24a	.
.	24bJJ)	.
.	(24ccLL	.
.	24dd	.
.	24eeJJ	.
.	32ff#LLL	.
.	32gg	.
.	32aa	.
.	32bbJJJ)	.
*clefF4	*	*
!!LO:LB:g=original
=14	=14	=14
8r	8ccc'L	.
8r	8ccc'	.
(32DDLLL	8ccc'J	.
32EE	.	.
32FF#	.	.
32GGJJJ	.	.
=15	=15	=15
24AALL	8ccc'L	.
24BB	.	.
24CJJ	.	.
*Xtuplet	*	*
24DLL	8aa'	.
24E	.	.
24F#JJ	.	.
24GLL	8gg'J	.
24A	.	.
24BJJ)	.	.
=16	=16	=16
4c; 4d;	4a; 4ff#;	rfz
8r	(16bLL	p
.	16ccJJ	.
=17	=17	=17
4.r	8dd')	.
.	(16eeLL	.
.	16ff#J	.
.	8gg'J)	.
=18	=18	=18
4.r	(16aaLL	.
.	16bbJ	.
.	8ccc'J)	.
.	8ccc#'	.
*clefG2	*	*
=19	=19	=19
*^	*	*
!	!	!	!LO:DY:b=2
(4b	[4.g	(4ddd'	p
16ccLL	.	16eeeLL	.
16a#JJ	.	16ccc#JJ	.
=20	=20	=20	=20
*	*	*^	*
8b')	8g]	8ryy	8ddd')	.
8r	8r	8r	8r	.
*v	*v	*	*	*
*clefF4	*	*	*
*^	*	*	*
(8c	8ryy	(16cccnLL	8ee	.
.	.	16aaJJ	.	.
*v	*v	*	*	*
!!LO:LB:g=original
=21	=21	=21	=21
8d)	8gg)	8b	.
8r	8r	8r	.
(8D	(16aaLL	(8cc	.
.	16ff#JJ	.	.
=22	=22	=22	=22
8G)	8gg)	8b)	.
8r	8r	8r	.
8r	8r	8r	.
*	*v	*v	*
=23	=23	=23
4.BBB 4.BB	4.B 4.d# 4.f# 4.b	f
=24	=24	=24
8r	(24bLL	p
.	24dd#	.
.	24ff#JJ)	.
*	*Xtuplet	*
8r	24bbLL	.
.	24aa	.
.	24ggJJ	.
*clefG2	*	*
8a	24ff#LL	.
.	24ee	.
.	24dd#JJ	.
=25	=25	=25
8gL	24eeLL	.
.	24b	.
.	24ggJJ	.
8g	24eeLL	.
.	24b	.
.	24ggJJ	.
8d#J	24ff#LL	.
.	24b	.
.	24aaJJ	.
=26	=26	=26
8e	8gg	.
8r	8r	.
8r	8r	.
*clefF4	*	*
=27	=27	=27
4.BBB 4.BB	4.B 4.d# 4.f# 4.b	f
*clefG2	*	*
!!LO:LB:g=original
=28	=28	=28
*	*tuplet	*
8r	24bLL	p
.	24dd#	.
.	24ff#JJ	.
*	*Xtuplet	*
8r	24bbLL	.
.	24aa	.
.	24ggJJ	.
8B 8a	24ff#LL	.
.	24ee	.
.	24dd#JJ	.
=29	=29	=29
8e 8g	24eeLL	.
.	24gg	.
.	24cc#JJ	.
*clefF4	*	*
8f#L	24ddnLL	.
.	24ff#	.
.	24bJJ	.
8F#J	24cc#LL	.
.	24ee	.
.	24a#JJ	.
=30	=30	=30
8B	8b	.
8r	8r	.
8r	8r	.
=31	=31	=31
4.BBB 4.BB	4.B 4.d# 4.f# 4.b	f
=32	=32	=32
*	*tuplet	*
8r	24bLL	p
.	24dd#	.
.	24ff#JJ	.
*	*Xtuplet	*
8r	24bbLL	.
.	24aa	.
.	24ggJJ	.
*clefG2	*	*
8a	24ff#LL	.
.	24ee	.
.	24dd#JJ	.
=33	=33	=33
8gL	24eeLL	.
.	24aa#	.
.	24bbJJ	.
8g	24eeLL	.
.	24aa#	.
.	24bbJJ	.
8d#J	24ff#LL	.
.	24aa#	.
.	24bbJJ	.
!!LO:LB:g=original
=34	=34	=34
8e	8gg	.
8r	8r	.
8r	8r	.
*clefF4	*	*
=35	=35	=35
4.EE 4.E	4.e 4.g# 4.b 4.ee	f
=36	=36	=36
*	*tuplet	*
8r	(24eeLL	p
.	24gg#	.
.	24bbJJ)	.
*	*Xtuplet	*
8r	24eeeLL	.
.	24ddd	.
.	24cccJJ	.
*clefG2	*	*
8dd	24bbLL	.
.	24aa	.
.	24gg#JJ	.
=37	=37	=37
8ccL<	24aaLL	.
.	24ddd#X	.
.	24eeeJJ	.
8cc	24aaLL	.
.	24ddd#	.
.	24eeeJJ	.
8g#J	24bbLL	.
.	24ddd#	.
.	24eeeJJ	.
=38	=38	=38
8a	8ccc	.
8r	8r	.
8r	8r	.
=39	=39	=39
8d 8a	8ff# 8ccc	pp
8r	8r	.
8r	8r	.
*clefF4	*	*
=40	=40	=40
8D 8A	8f# 8cc	.
8r	8r	.
8r	8r	.
=41	=41	=41
4.r	4.r	.
!!LO:LB:g=original
=42	=42	=42
4.r	8r	.
.	8r	.
.	(16BLL	p
.	16cJJ	.
=43	=43	=43
4.r	8d')	.
.	(16eL	.
.	16f#	.
.	8g'J)	.
=44	=44	=44
4.r	(16aLL	.
.	16bJ	.
.	8cc'J)	.
.	8cc#'	.
=45	=45	=45
*^	*	*
(4B	[4.G	(4dd	.
16cLL	.	16eeLL	.
16A#JJ	.	16cc#JJ	.
=46	=46	=46	=46
8B)	8G]	8dd')	.
8r	8r	8r	.
8r	8r	(16bLL	.
.	.	16ccnJJ	.
*v	*v	*	*
=47	=47	=47
4.r	8dd')	.
.	(16eeLL	.
.	16ff#J	.
.	8gg'J)	.
=48	=48	=48
4.r	(16aaLL	.
.	16bbJ	.
.	8ccc'J)	.
.	8ccc#'	.
*clefG2	*	*
!!LO:LB:g=original
=49	=49	=49
*^	*	*
.	.	(<dd8q	rfz
4b	4.d	(4ddd)	.
16aLL	.	16cccnLL	.
16f#JJ	.	16aaJJ	.
=50	=50	=50	=50
8g	8g	8gg)	.
8r	8r	8r	.
8r	8r	(24dLL	p
.	.	24e	.
.	.	24f#JJ)	.
*v	*v	*	*
*clefF4	*	*
=51	=51	=51
8r	(24gLL	.
.	24a	.
.	24bJJ)	.
8r	8cc'	.
8D' 8A' 8c'	8r	.
*clefG2	*	*
=52	=52	=52
8d' 8a' 8cc'	8r	.
8r	8ccc'	.
8r	(24dLL	.
.	24e	.
.	24f#JJ)	.
*clefF4	*	*
=53	=53	=53
8r	(24gLL	.
.	24a	.
.	24bJJ)	.
8r	8cc'	.
8D' 8A' 8c'	8r	.
*clefG2	*	*
=54	=54	=54
8d' 8a' 8cc'	8r	.
8r	8ccc'	.
8r	((24dLL	<
.	24e	.
.	24f#JJ)	.
*clefF4	*	*
!!LO:LB:g=original
=55	=55	=55
4.r	24gLL<	.
.	24a	.
.	24bJJ	.
.	24ccLL	.
.	24dd	.
.	24eeJJ)	.
.	(32ff#LLL	.
.	32gg	.
.	32aa	.
.	32bbJJJ)	.
=56	=56	=56
8r	8ccc'L	.
8r	8ccc'	.
(32DDLLL	8ccc'J	.
32EE	.	.
32FF#	.	.
32GGJJJ	.	.
=57	=57	=57
24AALL	8ccc'L	.
24BB	.	.
24CJJ	.	.
*Xtuplet	*	*
24DLL	8aa'	.
24E	.	.
24F#JJ	.	.
24GLL	8gg'J	.
24A	.	.
24BJJ)	.	.
=58	=58	=58
4c; 4d;	4a; 4ff#;	.
8r	(16bLL	p
.	16ccJJ	.
=59	=59	=59
4.r	8dd')	.
.	(16eeLL	.
.	16ff#J	.
.	8gg'J)	.
=60	=60	=60
4.r	(16aaLL	.
.	16bbJ	.
.	8ccc'J)	.
.	8ccc#'	.
*clefG2	*	*
!!LO:LB:g=original
=61	=61	=61
*^	*	*
(4b	[4.g	(4ddd	.
16ccLL	.	16eeeLL	.
16a#JJ	.	16ccc#JJ	.
=62	=62	=62	=62
*	*	*^	*
8b')	8g']	8ryy	8ddd')	.
8r	8r	8r	8r	.
*clefF4	*	*	*	*
(8c	8ryy	(16cccnLL	8ee	.
.	.	16aaJJ	.	.
*v	*v	*	*	*
=63	=63	=63	=63
8d)	8gg)	8b	.
8r	8r	8r	.
(8D	(16aaLL	8cc	.
.	16ff#JJ	.	.
=64	=64	=64	=64
8G)	8gg)	8b	.
8r	8r	8r	.
*tuplet	*	*	*
(24GGLL	8r	8r	.
24AA	.	.	.
24BBJJ)	.	.	.
*	*v	*v	*
=65	=65	=65
(24CLL	8r	.
24D	.	.
24EJJ)	.	.
8Fn'	8r	.
8r	8B' 8d' 8g'	.
=66	=66	=66
8r	8b' 8dd' 8gg'	.
8fn'z	8r	.
(<24GGLL	8r	.
24AA	.	.
24BBJJ	.	.
=67	=67	=67
24CLL>	8r	.
24D	.	.
24EJJ)	.	.
8Fn'	8r	.
8r	8B' 8d' 8g'	.
!!LO:LB:g=original
=68	=68	=68
8r	8b 8dd 8gg	.
8fn'z	8r	.
*Xtuplet	*	*
(24GGLL	8r	.
24AA	.	.
24BBJJ	.	.
=69	=69	=69
24CLL>	8r	.
24D	.	.
24EJJ)	.	.
*	*Xtuplet	*
8Fn'	(24GLL	.
.	24A	.
.	24BJJ	.
8r	24cLL	.
.	24d	.
.	24eJJ)	.
=70	=70	=70
(24GLL	8fn'	.
24A	.	.
24BJJ	.	.
24cLL	8r	.
24d	.	.
24eJJ)	.	.
8fn'	(24gLL	.
.	24a	.
.	24bJJ)	.
=71	=71	=71
4.r	(24ccLL	.
.	24dd	.
.	24eeJJ)	.
.	4ffn	.
=72	=72	=72
4.r	(4.dd#	>
=73	=73	=73
!	!	!LO:DY:t=%s dolce
(16CLL	(4.ee)	p
16G	.	.
16c	.	.
16G	.	.
16C	.	.
16GJJ)	.	.
!!LO:LB:g=original
=74	=74	=74
(16CLL	(4ffn)	.
16A	.	.
16c	.	.
16A	.	.
16C	32ggLLL	.
.	32ff	.
16AJJ)	32ee	.
.	32ffJJJ)	.
=75	=75	=75
(16CLL	(8ff#L	.
16Fn	.	.
16B	8gg)	.
16F	.	.
16C	8gg'J	.
16FJJ)	.	.
=76	=76	=76
(16CLL	(4gg	.
16E	.	.
16c	.	.
16E	.	.
16C	8ee)	.
16EJJ)	.	.
=77	=77	=77
*^	*	*
16BB-LL	(4BB-	(4.cc#	.
16E	.	.	.
16G	.	.	.
16E	.	.	.
16AA	8AA)	.	.
16EJJ	.	.	.
=78	=78	=78	=78
16AALL	4AA	8dd'L)	.
16D	.	.	.
.	.	(<ee8q	.
16Fn	.	(16ddL)	.
16D	.	16cc#	.
16AA	8AA	16dd	.
16DJJ	.	16eeJJ)	.
=79	=79	=79	=79
16AA-LL	(4AA-	(8ffnL	.
16D	.	.	.
16Fn	.	8b)	.
16D	.	.	.
16GG	8GG)	8b'J	.
16DJJ	.	.	.
*v	*v	*	*
=80	=80	=80
(16CLL	4cc	.
16E	.	.
16G	.	.
16Fn	.	.
16E	8r	.
16DJJ)	.	.
!!LO:LB:g=original
=81	=81	=81
(16CLL	(4.ee	.
16G	.	.
16B-	.	.
16G	.	.
16C	.	.
16GJJ)	.	.
=82	=82	=82
(16CLL	(4ffn)	.
16Fn	.	.
16A	.	.
16F	.	.
16C	32ggLLL	.
.	32ff	.
16FJJ)	32ee	.
.	32ffJJJ)	.
=83	=83	=83
(16CLL	(8ff#XL	.
16D	.	.
16Bn	8gg)	.
16D	.	.
16C	8gg'J	.
16DJJ)	.	.
=84	=84	=84
(16CLL	(4gg	.
16E	.	.
16c	.	.
16E	.	.
16C	8ee)	.
16EJJ)	.	.
=85	=85	=85
*^	*	*
16BB-LL	(4BB-	(4.cc#	.
16E	.	.	.
16G	.	.	.
16E	.	.	.
16AA	8AA)	.	.
16EJJ	.	.	.
=86	=86	=86	=86
16AALL	4AA	8dd'L)	.
16D	.	.	.
.	.	(<ee8q	.
16Fn	.	(16ddL)	.
16D	.	16cc#	.
16AA	8AA	16dd	.
16DJJ	.	16eeJJ)	.
!!LO:LB:g=original
=87	=87	=87	=87
16AA-LL	(4AA-	(8ffnL	.
16D	.	.	.
16Fn	.	8b)	.
16D	.	.	.
16GG	8GG)	8b'J	.
16DJJ	.	.	.
*v	*v	*	*
=88	=88	=88
(16CLL	4cc	.
16G	.	.
16Fn	.	.
16E	.	.
16D	8G	.
16CJJ)	.	.
=89	=89	=89
16r	4G 4fn	.
(16GGLL	.	.
16AA	.	.
16BB	.	.
*	*	*above
16C	[8G 8e	rfz
16FF#XJJ)	.	.
=90	=90	=90
16r	4G] 4d	.
(16GGLL	.	.
16AA	.	.
16BB	.	.
16C	[8G 8e	rfz
16FF#JJ)	.	.
=91	=91	=91
16r	4G] 4d	.
(16GGLL	.	.
16AA	.	.
16BB	.	.
16C	[8G 8e	rfz
16FF#JJ)	.	.
=92	=92	=92
[4.GG	(16G] 16dLL	.
.	16c#	.
.	16d	.
.	16e	.
.	16fn	.
.	16f#JJ)	.
!!LO:LB:g=original
=93	=93	=93
(16GGLL]	(4e 4g	.
16FF#	.	.
16GG	.	.
16FF#	.	.
16GG	8d 8fn	.
16GG#JJ)	.	.
=94	=94	=94
(16AALL	4c) 4e	.
16GG#	.	.
16AA	.	.
16GG#	.	.
16AA	8c 8e	.
16GGnJJ)	.	.
=95	=95	=95
(16FF#XLL	8c' 8a'L	.
16EE	.	.
16FF#	8c' 8a'	.
16DD	.	.
16EE	8c' 8a'J	.
16FF#JJ)	.	.
=96	=96	=96
(16GGLL	4B 4d	.
16AA	.	.
16BB	.	.
16C	.	.
16D	8r	.
16EJJ)	.	.
*	*clefF4	*
=97	=97	=97
*^	*	*
(4Fn	4.GG	16r	.
.	.	(16GLL	.
.	.	16A	.
.	.	16B	.
*	*	*	*below:2
8E-)	.	16c	rfz
.	.	16F#JJ)	.
=98	=98	=98	=98
(4D	4.GG	16r	.
.	.	(16GLL	.
.	.	16A	.
.	.	16B	.
8E-)	.	16c	rfz
.	.	16F#JJ)	.
!!LO:LB:g=original
=99	=99	=99	=99
(4D	4.GG	16r	.
.	.	(16GLL	.
.	.	16A	.
.	.	16B	.
8E-)	.	16c	rfz
.	.	16F#JJ)	.
*	*	*clefG2	*
=100	=100	=100	=100
4D	[4.GG	(16GLL	.
.	.	16B	.
.	.	16c	.
.	.	16d	.
8r	.	16e	.
.	.	16fnJJ)	.
*v	*v	*	*
=101	=101	=101
(16GGLL]	(4e 4g	.
16FF#X	.	.
16GG	.	.
16FF#	.	.
16GG	8d) 8fn	.
16GG#JJ)	.	.
=102	=102	=102
(16AALL	4c 4e	.
16GG#	.	.
16AA	.	.
16GG#	.	.
16AA	8c 8e	.
16GGnJJ)	.	.
=103	=103	=103
(16FF#XLL	8c' 8a'L	.
16EE	.	.
16FF#	8c' 8a'	.
16DD	.	.
16EE	8c' 8a'J	.
16FF#JJ)	.	.
=104	=104	=104
(16GGLL	4B 4d	.
16AA	.	.
16BB	.	.
16C	.	.
16D	8r	.
16EJJ)	.	.
!!LO:LB:g=original
=105	=105	=105
*	*	*center
(16F#LL	8a' 8cc' 8dd'L	>
16E	.	.
16F#	8a' 8cc' 8dd'	.
16D	.	.
16E	8a' 8cc' 8dd'J	.
16F#JJ)	.	.
=106	=106	=106
(16GLL	4g 4b 4dd	.
16A	.	.
16B	.	.
16c	.	.
16d	8r	.
16eJJ)	.	.
=107	=107	=107
(16f#LL	8cc' 8aa'L	.
16e	.	.
16f#	8cc' 8aa'	.
16d	.	.
16e	8cc' 8aa'J	.
16f#JJ)	.	.
=108	=108	=108
4g	16b 16ddLL>	pp
.	(16g	.
.	16a	.
.	16b	.
8r	16cc	.
.	16ddJJ)	.
=109	=109	=109
(16CLL	(4.ee	p
16G	.	.
16c	.	.
16G	.	.
16C	.	.
16GJJ)	.	.
=110	=110	=110
(16CLL	(4ffn)	.
16A	.	.
16c	.	.
16A	.	.
16C	32ggLLL	.
.	32ff	.
16AJJ)	32ee	.
.	32ffJJJ)	.
!!LO:LB:g=original
=111	=111	=111
(16CLL	(8ff#XL	.
16Fn	.	.
16B	8gg)	.
16F	.	.
16C	8gg'J	.
16FJJ)	.	.
=112	=112	=112
(16CLL	(4gg	.
16E	.	.
16c	.	.
16E	.	.
16C	8ee)	.
16EJJ)	.	.
=113	=113	=113
*^	*	*
16BB-LL	(4BB-	(4.cc#	.
16E	.	.	.
16G	.	.	.
16E	.	.	.
16AA	8AA)	.	.
16EJJ	.	.	.
=114	=114	=114	=114
16AALL	4AA	8dd'L)	.
16D	.	.	.
.	.	(<eeq8	.
16Fn	.	(16ddL)	.
16D	.	16cc#	.
16AA	8AA	16dd	.
16DJJ	.	16eeJJ)	.
=115	=115	=115	=115
16AA-LL	(4AA-	(8ffnL	.
16D	.	.	.
16Fn	.	8b)	.
16D	.	.	.
16GG	8GG)	8b'J	.
16DJJ	.	.	.
*v	*v	*	*
=116	=116	=116
(16CLL	8cc'L	.
16E	.	.
16G	(16ggL	.
16E	16ffn	.
16C	16ee	.
16EJJ)	16ddJJ)	.
!!LO:LB:g=original
=117	=117	=117
*^	*	*
16BB-LL	(4BB-	(4.cc#	.
16E	.	.	.
16G	.	.	.
16E	.	.	.
16AA	8AA)	.	.
16EJJ	.	.	.
=118	=118	=118	=118
16AALL	4AA	8ddL)	.
16D	.	.	.
.	.	(<eeq8	.
16Fn	.	(16ddL)	.
16D	.	16cc#	.
16AA	8AA	16dd	.
16DJJ	.	16eeJJ)	.
=119	=119	=119	=119
16AA-LL	(4AA-	(8ffnL	.
16D	.	.	.
16Fn	.	8b)	.
16D	.	.	.
16GG	8GG)	8b'J	.
16DJJ	.	.	.
*v	*v	*	*
=120	=120	=120
(16CLL	8ccn	.
16E	.	.
16G	8r	.
16E	.	.
16D	8r	.
16CJJ)	.	.
=121	=121	=121
.	(<ffn8q	.
!	!	!LO:DY:rj
(16GGLL	(4fffn)	sf
16D	.	.
16Fn	.	.
16D	.	.
16GG	8bb	.
16DJJ)	.	.
=122	=122	=122
(16CLL	8ccc')	.
16E	.	.
16G	8r	.
16E	.	.
16D	8r	.
16CJJ)	.	.
!!LO:LB:g=original
=123	=123	=123
.	(<fn8q	.
(16GGLL	(4ffn)	.
16D	.	.
16Fn	.	.
16D	.	.
16GG	8b	.
16DJJ)	.	.
=124	=124	=124
8C/ 8E/	8cc')	.
8r	8r	.
8r	(16eLL	p
.	16fnJJ	.
=125	=125	=125
4.r	8g')	.
.	(16aLL	.
.	16bJ	.
.	8cc'J)	.
=126	=126	=126
4.r	(16ddLL	.
.	16eeJ	.
.	8ffn'J)	.
.	8ff#'	.
*clefG2	*	*
=127	=127	=127
*^	*	*
(4e	[4.c	(4gg	.
16fnLL	.	16aaLL	.
16d#JJ	.	16ff#JJ	.
=128	=128	=128	=128
8e')	8c]	8gg')	.
8r	8r	8r	.
8r	8r	(16eLL	.
.	.	16fnJJ	.
*v	*v	*	*
=129	=129	=129
4.r	8g')	.
.	(16aLL	.
.	16bJ	.
.	8cc'J)	.
=130	=130	=130
4.r	(16ddLL	.
.	16eeJ	.
.	8ffn'J)	.
.	8ff#'	.
*clefF4	*	*
!!LO:LB:g=original
=131	=131	=131
.	(<g8q	.
(4e	(4gg)	rfz
16dLL	16ffnLL	.
16BJJ	16ddJJ	.
=132	=132	=132
8c')	8ee')	.
8r	8r	.
(16BLL	(16ddLL	>
16G#JJ	16bJJ	.
=133	=133	=133
8A')	8cc')	.
8r	8r	.
(16GnLL	(16bLL	.
16EJJ	16gnJJ	.
=134	=134	=134
8F#')	8a')	.
8r	8r	.
(16ELL	(16gLL	.
16C#JJ	16eJJ	.
=135	=135	=135
8D')	8f#')	.
8r	8r	.
(16EELL	8r	pp
16CC#JJ	.	.
=136	=136	=136
8DD')	4.r	.
8r	.	.
(16EELL	.	.
16CC#JJ)	.	.
=137	=137	=137
[4.DD	4.r	.
=138	=138	=138
4DD;]	4r;	.
8r	(16BLL	p
.	16cJJ	.
!!LO:LB:g=original
=139	=139	=139
4.r	8d')	.
.	(16eLL	.
.	16f#J	.
.	8g'J)	.
=140	=140	=140
4.r	(16aLL	.
.	16bJ	.
.	8cc'J)	.
.	8cc#'	.
=141	=141	=141
*^	*	*
(4B	[4.G	(4dd	.
16cLL	.	16eeLL	.
16A#JJ	.	16cc#JJ	.
=142	=142	=142	=142
8B')	8G]	8dd')	.
8r	8r	8r	.
8r	8r	(16bLL	.
.	.	16ccnJJ	.
*v	*v	*	*
=143	=143	=143
4.r	8dd')	.
.	(16eeLL	.
.	16ff#J	.
.	8gg'J)	.
=144	=144	=144
4.r	(16aaLL	.
.	16bbJ	.
.	8ccc'J)	.
.	8ccc#'	.
*clefG2	*	*
=145	=145	=145
*^	*	*
.	.	(<dd8q	.
(4b	(4.d	(4ddd)	.
16aLL	.	16cccnLL	.
16f#JJ	.	16aaJJ	.
=146	=146	=146	=146
8g)	8g)	8gg)	.
8r	8r	8r	.
8r	8r	(24dLL	p
.	.	24e	.
.	.	24f#JJ	.
*v	*v	*	*
*clefF4	*	*
!!LO:LB:g=original
=147	=147	=147
*	*	*
8r	24gLL	.
.	24a	.
.	24bJJ)	.
*	*Xtuplet	*
8r	8cc'	.
8D' 8A' 8c'	8r	.
*clefG2	*	*
=148	=148	=148
8d' 8a' 8cc'	8r	.
8r	8ccc'	.
8r	(24dLL	.
.	24e	.
.	24f#JJ	.
*clefF4	*	*
=149	=149	=149
8r	24gLL	.
.	24a	.
.	24bJJ)	.
8r	8cc'	.
8D' 8A' 8c'	8r	.
*clefG2	*	*
=150	=150	=150
8d' 8a' 8cc'	8r	.
8r	8ccc'	.
8r	(24dLL	<
.	24e	.
.	24f#JJ	.
*clefF4	*	*
=151	=151	=151
4.r	24gLL	.
.	24a	.
.	24bJJ)	.
.	(24ccLL	.
.	24dd	.
.	24eeJJ	.
.	32ff#LLL	.
.	32gg	.
.	32aa	.
.	32bbJJJ)	.
=152	=152	=152
8r	8ccc'L	.
8r	8ccc'	.
(32DDLLL	8ccc'J	.
32EE	.	.
32FF#	.	.
32GGJJJ	.	.
!!LO:LB:g=original
=153	=153	=153
*Xtuplet	*	*
24AALL	8ccc'L	.
24BB	.	.
24CJJ	.	.
24DLL	8aa'	.
24E	.	.
24F#JJ	.	.
24GLL	8gg'J	.
24A	.	.
24BJJ)	.	.
=154	=154	=154
!	!	!LO:DY:rj
4c;< 4d;<	4a; 4ff#;	rfz
8r	(16bLL	p
.	16ccJJ	.
=155	=155	=155
4.r	8dd')	.
.	(16eeLL	.
.	16ff#J	.
.	8gg'J)	.
=156	=156	=156
4.r	(16aaLL	.
.	16bbJ	.
.	8ccc'J)	.
.	8ccc#'	.
*clefG2	*	*
=157	=157	=157
*^	*	*
(4b	[4.g	(4ddd	.
16ccLL	.	16eeeLL	.
16a#JJ	.	16ccc#JJ	.
=158	=158	=158	=158
*	*	*^	*
8b')	8g]	8ddd')	8ryy	.
8r	8r	8r	8r	.
*clefF4	*	*	*	*
8ryy	(8c	16cccnLL	(8ee	.
.	.	16aaJJ	.	.
*v	*v	*	*	*
=159	=159	=159	=159
8d)	8gg)	8b	.
8r	8r	8r	.
(8D	(16aaLL	(8cc	.
.	16ff#JJ	.	.
!!LO:LB:g=original
=160	=160	=160	=160
8G)	8gg)	8b)	.
8r	8r	8r	.
(24DLL	8r	8r	.
24E	.	.	.
24F#JJ	.	.	.
*	*v	*v	*
=161	=161	=161
24GLL	8r	.
24A	.	.
24BJJ)	.	.
8c'	8r	.
8r	8f#' 8a' 8dd'	.
*clefG2	*	*
=162	=162	=162
8r	8ff#' 8aa' 8ddd'	.
!LO:DY:rj:a	!	!
8cc'z	8r	.
*clefF4	*	*
(24DLL	8r	<
24E	.	.
24F#JJ	.	.
=163	=163	=163
24GLL	8r	.
24A'	.	.
24BJJ)	.	.
8c'	8r	.
8r	8f#' 8a' 8dd'	.
*clefG2	*	*
=164	=164	=164
8r	8ff#' 8aa' 8ddd'	.
!LO:DY:a:rj	!	!
8cc'z	8r	.
*clefF4	*	*
(24DLL	8r	.
24E	.	.
24F#JJ	.	.
=165	=165	=165
24GLL	8r	.
24A	.	.
24BJJ)	.	.
8c'	(24dLL	.
.	24e	.
.	24f#JJ	.
8r	24gLL	.
.	24a	.
.	24bJJ)	.
*clefG2	*	*
!!LO:LB:g=original
=166	=166	=166
(24dLL	8cc'	.
24e	.	.
24f#JJ	.	.
24gLL	8r	.
24a	.	.
24bJJ)	.	.
8cc'	(24ddLL	.
.	24ee	.
.	24ff#JJ	.
=167	=167	=167
4.r	24ggLL	.
.	24aa	.
.	24bbJJ)	.
.	8ccc'	.
.	8r	.
=168	=168	=168
4.r	4.r	.
=169	=169	=169
(24d#LL	4.r	>
24e	.	.
24f#JJ	.	.
24gLL	.	.
24a	.	.
24bJJ)	.	.
8cc'	.	.
=170	=170	=170
4.r	(24dd#LL	.
.	24ee	.
.	24ff#JJ	.
.	24ggLL	.
.	24aa	.
.	24bbJJ)	.
.	8ccc'	.
=171	=171	=171
(24eLL	4.r	.
24f#	.	.
24g#JJ	.	.
24aLL	.	.
24b-	.	.
24bnJJ)	.	.
8cc'	.	.
=172	=172	=172
4.r	(24eeLL	.
.	24ff#	.
.	24gg#JJ	.
.	24aaLL	.
.	24bb-	.
.	24bbnJJ)	.
.	8ccc'	.
=173	=173	=173
4.r	4.r	.
!!LO:LB:g=original
=174	=174	=174
4.r	8r	.
.	8r	.
.	(16aLL<	pp
.	16b-JJ	.
=175	=175	=175
4.r	8cc')	.
.	(16ddnLL	.
.	16eeJ	.
.	8ffn'J)	.
=176	=176	=176
4.r	(16ggLL	.
.	16aaJ	.
.	8bb-'J)	.
.	8bbn'	.
=177	=177	=177
*^	*	*
(4a	[4.fn	(4ccc	.
16b-LL	.	16dddLL	.
16gJJ	.	16bbJJ	.
=178	=178	=178	=178
8a)	8f]	8ccc')	.
8r	8r	8r	.
8r	8r	(16aLL<	.
.	.	16b-JJ	.
*v	*v	*	*
=179	=179	=179
4.r	8cc')	.
.	(16ddLL	.
.	16eeJ	.
.	8ffn'J)	.
=180	=180	=180
4.r	(16ggLL	.
.	16aaJ	.
.	8bb-'J)	.
.	8bbn'	.
=181	=181	=181
*^	*	*
4a	(4.fn	(4ccc	pp
16b-LL	.	16dddLL	.
16g#JJ	.	16bbnJJ	.
!!LO:LB:g=original
=182	=182	=182	=182
4a	4.e	4ccc	.
16bnLL	.	16dddLL	.
16g#JJ	.	16bbJJ	.
=183	=183	=183	=183
4a	4.d#	4ccc	<
16bLL	.	16dddLL	.
16g#JJ	.	16bbJJ	.
=184	=184	=184	=184
8a'L	4.dn)	8ccc'L)	.
8a'	.	8ccc'	.
8a'J	.	8ccc'J	.
=185	=185	=185	=185
8gn	8gn	(32cccLLK	p
.	.	16.bbJJ)	.
8r	8r	(32aaLLK	.
.	.	16.ggJJ)	.
8r	8r	(32ff#LLK	.
.	.	16.ggJJ)	.
*v	*v	*	*
=186	=186	=186
8c# 8g 8a	(32aaLLK	.
.	16.ggJJ)	.
8r	(32ff#LLK	.
.	16.eeJJ)	.
8r	(32dd#LLK	.
.	16.eeJJ)	.
=187	=187	=187
8d 8g 8b	(32ggLLK	.
.	16.ff#JJ)	.
8r	(32eeLLK	.
.	16.ddnJJ)	.
8r	(32ccLLK	.
.	16.bJJ)	.
*clefF4	*	*
=188	=188	=188
8D 8A 8c	(32ddLLK	.
.	16.ccJJ)	.
8r	(32bLLK	.
.	16.aJJ)	.
8r	(32gLLK	.
.	16.f#JJ)	.
!!LO:LB:g=original
=189	=189	=189
8GG	8g	p
8r	(24GLL	.
.	24B	.
.	24dJJ)	.
*	*Xtuplet	*
8r	24GLL	.
.	24B	.
.	24dJJ	.
*clefG2	*	*
=190	=190	=190
4.g	24GLL	.
.	24B	.
.	24dJJ	.
.	24GLL	.
.	24B	.
.	24dJJ	.
.	24GLL	.
.	24B	.
.	24dJJ	.
=191	=191	=191
(8f#L	24ALL	.
.	24c	.
.	24dJJ	.
8dd)	24ALL	.
.	24c	.
.	24dJJ	.
8dd'J	24ALL	.
.	24c	.
.	24dJJ	.
*clefF4	*	*
=192	=192	=192
4.FF#	24ALL	.
.	24c	.
.	24dJJ	.
.	24ALL	.
.	24c	.
.	24dJJ	.
.	24ALL	.
.	24c	.
.	24dJJ	.
=193	=193	=193
(8GGL	24GLL	.
.	24B	.
.	24dJJ	.
8D)	24GLL	.
.	24B	.
.	24dJJ	.
8D'J	24GLL	.
.	24B	.
.	24dJJ	.
*clefG2	*	*
!!LO:LB:g=original
=194	=194	=194
4.g	24GLL	.
.	24B	.
.	24dJJ	.
.	24GLL	.
.	24B	.
.	24dJJ	.
.	24GLL	.
.	24B	.
.	24dJJ	.
=195	=195	=195
8f#	24ALL	.
.	24c	.
.	24dJJ	.
*	*	*below:2
(8eeL	24ALL	rfz
.	24c	.
.	24dJJ	.
8ddJ)	24ALL	.
.	24c	.
.	24dJJ	.
*clefF4	*	*
=196	=196	=196
4.FF#	24ALL	.
.	24c	.
.	24dJJ	.
.	24ALL	.
.	24c	.
.	24dJJ	.
.	24ALL	.
.	24c	.
.	24dJJ	.
=197	=197	=197
8GG'	24GLL	.
.	24B	.
.	24dJJ	.
(8EL	24GLL	rfz
.	24B	.
.	24dJJ	.
8DJ)	24GLL	.
.	24B	.
.	24dJJ	.
*clefG2	*	*
=198	=198	=198
8f#'	24ALL	.
.	24c	.
.	24dJJ	.
(8eeL	24ALL	rfz
.	24c	.
.	24dJJ	.
8ddJ)	24ALL	.
.	24c	.
.	24dJJ	.
*clefF4	*	*
!!LO:LB:g=original
=199	=199	=199
8GG'	24GLL	.
.	24B	.
.	24dJJ	.
(8EL	24GLL	rfz
.	24B	.
.	24dJJ	.
8DJ)	24GLL	.
.	24B	.
.	24dJJ	.
*clefG2	*	*
=200	=200	=200
8f#'	24ALL	.
.	24c	.
.	24dJJ	.
(8eeL	24ALL	rfz
.	24c	.
.	24dJJ	.
8ddJ)	24ALL	.
.	24c	.
.	24dJJ	.
*clefF4	*	*
=201	=201	=201
8r	16GLL	.
.	16B	.
8r	16A	.
.	16c	.
8G'	16B	.
.	16dJJ	.
=202	=202	=202
8A'L	16cLL	.
.	16e	.
8B'	16d	.
.	16f#	.
8c'J	16e	.
.	16gJJ	.
=203	=203	=203
8d'L	16f#LL	.
.	16a	.
8e'	16g	.
.	16b	.
8f#'J	16a	.
.	16ccJJ	.
=204	=204	=204
8g'L	16bLL>	.
.	16cc#	.
*	*	*center
8F#'	16dd	<
.	16ccn	.
8G'J	16b	.
.	16gJJ	.
!!LO:LB:g=original
=205	=205	=205
8G#'L	16eeLL	.
.	16dd	.
8A'	16cc	.
.	16a	.
8A#'J	16ff#	.
.	16eeJJ	.
=206	=206	=206
8B'	16ddLL	.
.	16b	.
*clefG2	*	*
8B' 8g'L	16gg	.
.	16ffn	.
8c' 8g'J	16ee	.
.	16ccJJ	.
=207	=207	=207
8B' 8g'L	16ggLL	.
.	16ffn	.
8c' 8g'	16ee	.
.	16cc	.
8B' 8g'J	16gg	.
.	16ffJJ	.
=208	=208	=208
8c' 8g'L	16eeLL	ff
.	16cc	.
8B' 8g'	16gg	.
.	16ffn	.
8c' 8g'J	16ee	.
.	16ccJJ	.
=209	=209	=209
8c' 8g'	8r	p
8r	(24ggLL	.
.	24ff#X	.
.	24eeJJ)	.
8r	(24ggLL	.
.	24ff#	.
.	24eeJJ)	.
=210	=210	=210
8c# 8g 8a	8r	.
8r	(24ggLL	.
.	24ff#	.
.	24eeJJ)	.
8r	(24ggLL	.
.	24ff#	.
.	24eeJJ)	.
!!LO:LB:g=original
=211	=211	=211
8d' 8g' 8b'	8r	.
8r	(24ddLL	.
.	24cc	.
.	24bJJ)	.
8r	(24ddLL	.
.	24cc	.
.	24bJJ)	.
*clefF4	*	*
=212	=212	=212
8D' 8A' 8c'	8r	.
8r	(24aLL	.
.	24g	.
.	24f#JJ)	.
8r	(24aLL	.
.	24g	.
.	24f#JJ)	.
=213	=213	=213
*Xtuplet	*	*
24GLL	4g	<
24B	.	.
24dJJ	.	.
24GLL	.	.
24B	.	.
24dJJ	.	.
24GLL	8r	.
24B	.	.
24dJJ	.	.
*	*clefF4	*
=214	=214	=214
24GLL	4.GG	.
24B	.	.
24dJJ	.	.
24GLL	.	.
24B	.	.
24dJJ	.	.
24GLL	.	.
24B	.	.
24dJJ	.	.
=215	=215	=215
24ALL	(8FF#L	.
24c	.	.
24dJJ	.	.
24ALL	8D)	.
24c	.	.
24dJJ	.	.
24ALL	8D'J	.
24c	.	.
24dJJ	.	.
*	*clefG2	*
!!LO:LB:g=original
=216	=216	=216
24ALL	4.f#	.
24c	.	.
24dJJ	.	.
24ALL	.	.
24c	.	.
24dJJ	.	.
24ALL	.	.
24c	.	.
24dJJ	.	.
=217	=217	=217
24GLL	(8gL	.
24B	.	.
24dJJ	.	.
24GLL	8dd)	.
24B	.	.
24dJJ	.	.
24GLL	8dd'J	.
24B	.	.
24dJJ	.	.
*	*clefF4	*
=218	=218	=218
24GLL	4.GG	.
24B	.	.
24dJJ	.	.
24GLL	.	.
24B	.	.
24dJJ	.	.
24GLL	.	.
24B	.	.
24dJJ	.	.
=219	=219	=219
24ALL	8FF#'L	.
24c	.	.
24dJJ	.	.
24ALL	(8E	rfz
24c	.	.
24dJJ	.	.
24ALL	8DJ)	.
24c	.	.
24dJJ	.	.
*	*clefG2	*
=220	=220	=220
24ALL	4.f#	.
24c	.	.
24dJJ	.	.
24ALL	.	.
24c	.	.
24dJJ	.	.
24ALL	.	.
24c	.	.
24dJJ	.	.
!!LO:LB:g=original
=221	=221	=221
24GLL	8g	.
24B	.	.
24dJJ	.	.
24GLL	(8eeL	rfz
24B	.	.
24dJJ	.	.
24GLL	8ddJ)	.
24B	.	.
24dJJ	.	.
*	*clefF4	*
=222	=222	=222
24ALL	8FF#'	.
24c	.	.
24dJJ	.	.
24ALL	(8EL	rfz
24c	.	.
24dJJ	.	.
24ALL	8DJ)	.
24c	.	.
24dJJ	.	.
*	*clefG2	*
=223	=223	=223
24GLL	8g'	.
24B	.	.
24dJJ	.	.
24GLL	(8eeL	rfz
24B	.	.
24dJJ	.	.
24GLL	8ddJ)	.
24B	.	.
24dJJ	.	.
*	*clefF4	*
=224	=224	=224
24ALL	8FF#'	.
24c	.	.
24dJJ	.	.
24ALL	(8EL	rfz
24c	.	.
24dJJ	.	.
24ALL	8DJ)	.
24c	.	.
24dJJ	.	.
=225	=225	=225
8r	16GGLL	p
.	16BB	.
8r	16AA	.
.	16C	.
8GGG' 8GG'	16BB	.
.	16DJJ	.
!!LO:LB:g=original
=226	=226	=226
8AAA' 8AA'L	16CLL	.
.	16E	.
8BBB' 8BB'	16D	.
.	16F#	.
8CC' 8C'J	16E	.
.	16GJJ	.
=227	=227	=227
8DD' 8D'L	16F#LL	.
.	16A	.
8EE' 8E'	16G	.
.	16B	.
8FF#' 8F#'J	16A	.
.	16cJJ	.
*	*clefG2	*
=228	=228	=228
8GG' 8G'	16BLL	.
.	16c#	.
8FF#'L	16d	<
.	16cn	.
8GG'J	16B	.
.	16GJJ	.
=229	=229	=229
8GG#'L	16eLL	.
.	16d	.
8AA'	16c	.
.	16A	.
8AA#'J	16f#	.
.	16eJJ	.
=230	=230	=230
8BB'L	16dLL	.
.	16B	.
8BB' 8G'	16g	.
.	16fn	.
8C' 8G'J	16e	.
.	16cJJ	.
=231	=231	=231
8BB' 8G'L	16gLL	.
.	16fn	.
8C' 8G'	16e	.
.	16c	.
8BB' 8G'J	16g	.
.	16fJJ	.
=232	=232	=232
8C' 8G'L	16eLL	ff
.	16c	.
8BB' 8G'	16g	.
.	16fn	.
8C' 8G'J	16e	.
.	16cJJ	.
!!LO:LB:g=original
=233	=233	=233
8C' 8G'	8r	.
8r	(24ggLL	p
.	24ff#	.
.	24eeJJ)	.
*	*Xtuplet	*
8r	(24ggLL	.
.	24ff#	.
.	24eeJJ)	.
=234	=234	=234
8C#' 8G' 8A'	8r	.
8r	(24ggLL	.
.	24ff#	.
.	24eeJJ)	.
8r	(24ggLL	.
.	24ff#	.
.	24eeJJ)	.
=235	=235	=235
8D' 8G' 8B'	8r	.
8r	(24ddLL	.
.	24cc	.
.	24bJJ)	.
8r	(24ddLL	.
.	24cc	.
.	24bJJ)	.
=236	=236	=236
8D' 8A' 8c'	8r	.
8r	(24aLL	.
.	24g	.
.	24f#JJ)	.
8r	(24aLL	.
.	24g	.
.	24f#JJ)	.
=237	=237	=237
*Xtuplet	*	*
24GGLL<	8g	.
24D	.	.
24GJJ	.	.
24GGLL<	8r	.
24D	.	.
24GJJ	.	.
24GGLL<	(16bLL	.
24D	.	.
.	16ccJJ	.
24GJJ	.	.
!!LO:LB:g=original
=238	=238	=238
24GGLL<	8dd')	<
24D	.	.
24GJJ	.	.
24GGLL<	(16eeLL	.
24D	.	.
.	16ff#J	.
24GJJ	.	.
24GGLL<	8gg'J)	.
24D	.	.
24GJJ	.	.
=239	=239	=239
24GGLL<	(16aaLL	.
24D	.	.
.	16bbJ	.
24GJJ	.	.
24GGLL<	8ccc'J)	.
24D	.	.
24GJJ	.	.
24GGLL<	8cc#' 8ccc#'	rfz
24D	.	.
24GJJ	.	.
=240	=240	=240
24GGLL<	4dd (4ddd	.
24D	.	.
24GJJ	.	.
24GGLL<	.	.
24D	.	.
24GJJ	.	.
24GGLL<	16eeeLL	.
24D	.	.
.	16ccc#JJ	.
24GJJ	.	.
=241	=241	=241
24GGLL<	8ddd')	.
24D	.	.
24GJJ	.	.
24GGLL<	8r	.
24D	.	.
24GJJ	.	.
24GGLL<	(16bLL	.
24D	.	.
.	16ccnJJ	.
24GJJ	.	.
=242	=242	=242
24GGLL<	8dd')	<
24D	.	.
24GJJ	.	.
24GGLL<	(16eeLL	.
24D	.	.
.	16ff#J	.
24GJJ	.	.
24GG\LL<	8gg'J)	.
24D	.	.
24GJJ	.	.
!!LO:LB:g=original
=243	=243	=243
24GGLL<	(16aaLL	.
24D	.	.
.	16bbJ	.
24GJJ	.	.
24GGLL<	8ccc'J)	.
24D	.	.
24GJJ	.	.
24GG\LL<	8cc#' 8ccc#'	rfz
24D	.	.
24GJJ	.	.
=244	=244	=244
24GGLL<	4dd (4ddd	.
24D	.	.
24GJJ	.	.
24GGLL<	.	.
24D	.	.
24GJJ	.	.
24GGLL<	16cccnLL	.
24D	.	.
.	16aaJJ	.
24GJJ	.	.
=245	=245	=245
24GGLL<	8gg')	.
24D	.	.
24GJJ	.	.
24GGLL<	8r	.
24D	.	.
24GJJ	.	.
24GGLL<	8c#' 8cc#'	rfz
24D	.	.
24GJJ	.	.
=246	=246	=246
24GGLL<	4d\ (4dd\	.
24D	.	.
24GJJ	.	.
24GGLL<	.	.
24D	.	.
24GJJ	.	.
24GGLL<	16eeLL	.
24D	.	.
.	16cc#JJ	.
24GJJ	.	.
=247	=247	=247
24GGLL<	8dd')	.
24D	.	.
24GJJ	.	.
24GGLL<	8r	.
24D	.	.
24GJJ	.	.
24GGLL<	8cc#' 8ccc#'	rfz
24D	.	.
24GJJ	.	.
!!LO:LB:g=original
=248	=248	=248
24GGLL<	4dd (4ddd	.
24D	.	.
24GJJ	.	.
24GGLL<	.	.
24D	.	.
24GJJ	.	.
24GGLL<	16cccnLL	.
24D	.	.
.	16aaJJ	.
24GJJ	.	.
=249	=249	=249
24GGLL<	8gg')	.
24D	.	.
24GJJ	.	.
24GGLL<	8r	.
24D	.	.
24GJJ	.	.
24GGLL<	(16ccLL>	p
24D	.	.
.	16aJJ	.
24GJJ	.	.
=250	=250	=250
24GGLL<	8g')	.
24D	.	.
24GJJ	.	.
24GGLL<	8r	.
24D	.	.
24GJJ	.	.
24GGLL<	(16cccLL	.
24D	.	.
.	16aaJJ	.
24GJJ	.	.
=251	=251	=251
24GGLL<	8gg')	.
24D	.	.
24GJJ	.	.
24GGLL<	8r	.
24D	.	.
24GJJ	.	.
24GGLL<	(16ccLL>	.
24D	.	.
.	16aJJ	.
24GJJ	.	.
=252	=252	=252
8GG	8g')	.
8r	8r	.
(16AAALL	8r	pp
16FFF#JJ	.	.
=253	=253	=253
8GGG)	4.r	.
8r	.	.
8r	.	.
=254	=254	=254
4r	4r	.
8r	8r	.
==	==	==
*-	*-	*-
!!!RDF**kern: > = above
!!!RDF**kern: < = below
!!!verovio: beamFrenchStyle
!!!LOR: Durand 1915, plates 9327/9328, Paul Dukas, ed.
!!!PED: Dukas, Paul
!!!URL-github: https://github.com/craigsapp/beethoven-piano-sonatas/blob/main/kern/sonata10-3.krn
!!!URL-vhv: https://verovio.humdrum.org/?file=beethoven/sonatas/sonata10-3.krn
!!!URL-pdf: https://github.com/craigsapp/beethoven-piano-sonatas/blob/master/reference-edition/sonata10-3.pdf
!!!ENC: Craig Stuart Sapp
!!!END: 2005/08/24
!!!EED: Craig Stuart Sapp
!!!EEV: 2023/04/15
